icons/chains/gradient/Frequency.svg

<svg width="48" height="48" viewBox="0 0 48 48" fill="none" xmlns="http://www.w3.org/2000/svg">
<g clip-path="url(#clip0_3911_10372)">
<path d="M0 12C0 5.37258 5.37258 0 12 0H36C42.6274 0 48 5.37258 48 12V36C48 42.6274 42.6274 48 36 48H12C5.37258 48 0 42.6274 0 36V12Z" fill="url(#paint0_linear_3911_10372)"/>
<path d="M13.75 6V42H20.0975V30.7963L32.7935 25.3273L32.6233 18.8771L20.0975 24.2032V12.0003H36.25V6H13.75Z" fill="white"/>
</g>
<defs>
<linearGradient id="paint0_linear_3911_10372" x1="0" y1="0" x2="48" y2="48" gradientUnits="userSpaceOnUse">
<stop offset="0.184691" stop-color="#556EFF"/>
<stop offset="0.782599" stop-color="#3750E1"/>
</linearGradient>
<clipPath id="clip0_3911_10372">
<rect width="48" height="48" fill="white"/>
</clipPath>
</defs>
</svg>

<?xml version="1.0" encoding="UTF-8" standalone="no"?>
<svg xmlns="http://www.w3.org/2000/svg" width="48" height="48" fill="none">
<g clip-path="url(#a)">
    <path d="M0 12C0 5.373 5.373 0 12 0h24c6.627 0 12 5.373 12 12v24c0 6.627-5.373 12-12 12H12C5.373 48 0 42.627 0 36Z" style="fill:#4b64ff"/>
    <path fill="#fff" d="M13.75 6v36h6.348V30.796l12.696-5.469-.17-6.45-12.527 5.326V12H36.25V6h-22.5Z"/>
</g>
<defs>
    <clipPath id="a"><path d="M0 0h48v48H0z"/></clipPath>
</defs></svg>
